assets/images/script/vowels.svg

<svg fill="none" height="559" viewBox="0 0 552 559" width="552" xmlns="http://www.w3.org/2000/svg"><g stroke="#000" stroke-linecap="round" stroke-width="3"><path d="m176.974 38.6009c-.358.2605-1.465.9199-1.867.3333-.729-1.0662 4.73-5.5517 5.134-5.9334 10.758-10.1601 22.756-19.0778 34.534-28.0008"/><path d="m205.879 32c-.299.2661-1.289.6-.6.6"/><path d="m179.899 116.326c2.539-.685 4.046-1.465 7.542 0 6.4 2.682 9.254 8.662 8.268 13.997-1.592 8.614-4.025 12.024-13.271 19.818"/><path d="m207.899 133.141h1.2"/><path d="m188.423 227.218h-.6"/><path d="m202.823 227.818v-.6"/><path d="m193.8 333.728c-1.478 7.39-16.875-.231-13.234-8.033 3.224-6.908 13.687-2.832 16.467 2.233 2.94 5.355-4.939 8.579-8.633 10"/><path d="m209.011 329.928c.25 1.033 1.038.481 0 1"/><path d="m172.244 430.453c-4.73.189-4.779 11.243.933 10.334 7.387-1.175 14.425-8.967 19.667-13.667 9.445-8.469 18.722-16.917 28.601-24.868"/><path d="m216.226 431.453c-.17-1.019-.252-1.897-1-.4"/><path d="m17.6222 37.6007c-1.6265-2.7108 35.9095-27.0922 35.401-27.6007"/><path d="m26.0288 108.771c1.6689-2.835 8.3835-.145 9.7335.6 5.7297 3.161 9.935 8.822 9.3336 15.667-.653 7.431-6.3321 13.365-10.9336 18.734"/><path d="m33.5 227.304c1.2613-.404 3.6123-.487 2.0667 1.5-1.4047 1.806-1.6603-.291.0667-1.233 1.297-.708 2.1967.859 1.1334 1.466-.568.325-2.0039.036-.8667-.533"/><path d="m42.2943 320.492c.1761-1.408.4772-1.62-1.8667-1.766-5.0443-.316-11.0596 1.424-13.0003 6.6-2.6593 7.091 4.9882 9.125 10.4003 6.767 2.6466-1.154 7.4849-4.605 6.5001-8.134-.8839-3.167-5.6357-2.627-8.0335-2.867"/><path d="m11.2697 426.786c-.8923 1.865-5.77085 12.736-.4 11.333 7.6131-1.989 14.8559-7.179 21.3006-11.333 9.6451-6.218 19.5182-14.95 29.5008-22.601"/><path d="m1.73659 543.059c6.42037-5.208 13.89001-10.202 20.99351-15.592.1056-.095 3.1969-2.33 2.7362-.736-.2695 4.515-.651 6.497-.516 11.181.4629 16.067 16.8444-.584 21.9741-5.028 9.5248-9.339 14.6943-16.093 21.2912-27.454"/><path d="m356.522 333.133c4 3.367 16.086-2.354 12.445-10.156-4.945-8.977-13.686-2.832-16.467 2.233-2.94 5.355 4.939 8.58 8.633 10"/><path d="m340.522 332.21c-.25 1.034-1.038.481 0 1"/><path d="m340.522 322.21c-.25 1.034-1.038.481 0 1"/><path d="m516.522 337.206c4 3.366 16.086-2.354 12.445-10.157-4.945-8.977-13.686-2.832-16.467 2.233-2.94 5.355 4.939 8.58 8.633 10.001"/><path d="m500.522 331.283c-.25 1.033-1.038.48 0 1"/><path d="m496.156 41.5927c-4.609-.3223 6.655-9.1583 7.723-10.0862 6.886-5.9865 14.226-11.3418 21.677-16.5954 3.081-2.1723 6.743-4.005 8.468-7.36082"/><path d="m501.153 11c-.532.4655-.316.2843-.6 0"/><path d="m481.257 545.65c-.663 2.807 1.041.603 3.119-1.024 6.511-5.095 13.085-10.149 19.3-15.604.107-.094 4.6-4.047 4.111-2.461-1.329 4.319-3.109 8.066-3.056 12.752.183 16.072 17.834-.1 22.059-4.644 8.705-9.362 16.909-20.551 22.721-31.986"/><path d="m493.658 515.889c1.293-.827-.91-.2.6-.2"/></g></svg>

<svg width="552" height="559" viewBox="0 0 552 559" fill="none" xmlns="http://www.w3.org/2000/svg">
<path d="M176.974 38.6009C176.616 38.8614 175.509 39.5208 175.107 38.9342C174.378 37.868 179.837 33.3825 180.241 33.0008C190.999 22.8407 202.997 13.923 214.775 5" stroke="black" stroke-width="3" stroke-linecap="round"/>
<path d="M205.879 32C205.58 32.2661 204.59 32.6 205.279 32.6" stroke="black" stroke-width="3" stroke-linecap="round"/>
<path d="M179.899 116.326C182.438 115.641 183.945 114.861 187.441 116.326C193.841 119.008 196.695 124.988 195.709 130.323C194.117 138.937 191.684 142.347 182.438 150.141" stroke="black" stroke-width="3" stroke-linecap="round"/>
<path d="M207.899 133.141H209.099" stroke="black" stroke-width="3" stroke-linecap="round"/>
<path d="M188.423 227.218H187.823" stroke="black" stroke-width="3" stroke-linecap="round"/>
<path d="M202.823 227.818V227.218" stroke="black" stroke-width="3" stroke-linecap="round"/>
<path d="M193.8 333.728C192.322 341.118 176.925 333.497 180.566 325.695C183.79 318.787 194.253 322.863 197.033 327.928C199.973 333.283 192.094 336.507 188.4 337.928" stroke="black" stroke-width="3" stroke-linecap="round"/>
<path d="M209.011 329.928C209.261 330.961 210.049 330.409 209.011 330.928" stroke="black" stroke-width="3" stroke-linecap="round"/>
<path d="M172.244 430.453C167.514 430.642 167.465 441.696 173.177 440.787C180.564 439.612 187.602 431.82 192.844 427.12C202.289 418.651 211.566 410.203 221.445 402.252" stroke="black" stroke-width="3" stroke-linecap="round"/>
<path d="M216.226 431.453C216.056 430.434 215.974 429.556 215.226 431.053" stroke="black" stroke-width="3" stroke-linecap="round"/>
<path d="M17.6222 37.6007C15.9957 34.8899 53.5317 10.5085 53.0232 10" stroke="black" stroke-width="3" stroke-linecap="round"/>
<path d="M26.0288 108.771C27.6977 105.936 34.4123 108.626 35.7623 109.371C41.492 112.532 45.6973 118.193 45.0959 125.038C44.4429 132.469 38.7638 138.403 34.1623 143.772" stroke="black" stroke-width="3" stroke-linecap="round"/>
<path d="M33.5 227.304C34.7613 226.9 37.1123 226.817 35.5667 228.804C34.162 230.61 33.9064 228.513 35.6334 227.571C36.9304 226.863 37.8301 228.43 36.7668 229.037C36.1988 229.362 34.7629 229.073 35.9001 228.504" stroke="black" stroke-width="3" stroke-linecap="round"/>
<path d="M42.2943 320.492C42.4704 319.084 42.7715 318.872 40.4276 318.726C35.3833 318.41 29.368 320.15 27.4273 325.326C24.768 332.417 32.4155 334.451 37.8276 332.093C40.4742 330.939 45.3125 327.488 44.3277 323.959C43.4438 320.792 38.692 321.332 36.2942 321.092" stroke="black" stroke-width="3" stroke-linecap="round"/>
<path d="M11.2697 426.786C10.3774 428.651 5.49885 439.522 10.8697 438.119C18.4828 436.13 25.7256 430.94 32.1703 426.786C41.8154 420.568 51.6885 411.836 61.6711 404.185" stroke="black" stroke-width="3" stroke-linecap="round"/>
<path d="M1.73659 543.059C8.15696 537.851 15.6266 532.857 22.7301 527.467C22.8357 527.372 25.927 525.137 25.4663 526.731C25.1968 531.246 24.8153 533.228 24.9503 537.912C25.4132 553.979 41.7947 537.328 46.9244 532.884C56.4492 523.545 61.6187 516.791 68.2156 505.43" stroke="black" stroke-width="3" stroke-linecap="round"/>
<path d="M356.522 333.133C360.522 336.5 372.608 330.779 368.967 322.977C364.022 314 355.281 320.145 352.5 325.21C349.56 330.565 357.439 333.79 361.133 335.21" stroke="black" stroke-width="3" stroke-linecap="round"/>
<path d="M340.522 332.21C340.272 333.244 339.484 332.691 340.522 333.21" stroke="black" stroke-width="3" stroke-linecap="round"/>
<path d="M340.522 322.21C340.272 323.244 339.484 322.691 340.522 323.21" stroke="black" stroke-width="3" stroke-linecap="round"/>
<path d="M516.522 337.206C520.522 340.572 532.608 334.852 528.967 327.049C524.022 318.072 515.281 324.217 512.5 329.282C509.56 334.637 517.439 337.862 521.133 339.283" stroke="black" stroke-width="3" stroke-linecap="round"/>
<path d="M500.522 331.283C500.272 332.316 499.484 331.763 500.522 332.283" stroke="black" stroke-width="3" stroke-linecap="round"/>
<path d="M496.156 41.5927C491.547 41.2704 502.811 32.4344 503.879 31.5065C510.765 25.52 518.105 20.1647 525.556 14.9111C528.637 12.7388 532.299 10.9061 534.024 7.55028" stroke="black" stroke-width="3" stroke-linecap="round"/>
<path d="M501.153 11C500.621 11.4655 500.837 11.2843 500.553 11" stroke="black" stroke-width="3" stroke-linecap="round"/>
<path d="M481.257 545.65C480.594 548.457 482.298 546.253 484.376 544.626C490.887 539.531 497.461 534.477 503.676 529.022C503.783 528.928 508.276 524.975 507.787 526.561C506.458 530.88 504.678 534.627 504.731 539.313C504.914 555.385 522.565 539.213 526.79 534.669C535.495 525.307 543.699 514.118 549.511 502.683" stroke="black" stroke-width="3" stroke-linecap="round"/>
<path d="M493.658 515.889C494.951 515.062 492.748 515.689 494.258 515.689" stroke="black" stroke-width="3" stroke-linecap="round"/>
</svg>
